!!!OTL@@FUR: Biel vignint da l'Ongjarie
!!!OTL@IT: Ritornando dall'Ungheria
!!!OTL@EN: While returning from Hungary
**kern
*clefG2
*k[b-]
*F:
*M2/4
*MM110
*>[A]
=1
*>A
[4cc
8.cc]
16b-
=2
8.a
16g
8.a
16b-
=3
2cc
=4
2a
=5
[4cc
8.cc]
16b-
=6
8.a
16cc
8.b-
16a
=7
8.g
16e
8.g
16e
=8
2c
=9
[4cc
8.cc]
16b-
=10
8.a
16g
8.a
16b-
=11
4cc
4dd
=12
4ee
4ff
=13
4ee
8ff
8ee
=14
8dd
8cc
8dd
8b-
=15
[2a
=16
4a]
4r
=17
[4g
8.g]
16a
=18
8b-
8cc
8dd
8b-
=19
[4a
8.a]
16b-
=20
4cc
4ff
=21
4ee
8ff
8ee
=22
8dd
8cc
8dd
8b-
=23
[2a
=24
4a]
4r
==
*-
!!!ARE: Friuli
!!!ENC: Kelly Leistikow
!!!END: 2002/03/07
!!!ref: @{OTL@@FUR}/@{OTL@EN}
